X:41
T:The Chicago
R:reel
M:4/4
L:1/8
K:Ador
cded cAGE|EGGE GAcd|ec (3ccc acgc|eaag eged|
cded cAGE|EGGE GAcd|eaag eged|cABG A3B:|
|:cdef geaf|gedc BAGB|cdef gedg|eaag aged|
cdef ~g3e|~a3f gbag|effe dfed|cABG A3B:||

